img/icon-phone.svg

<svg width="25" height="24" viewBox="0 0 25 24" fill="none" xmlns="http://www.w3.org/2000/svg">
<path d="M18.1604 15.3239L18.1588 15.3264C17.755 15.9512 16.6158 17.3337 16.2838 17.7244C16.2492 17.7655 16.1875 17.8359 16.1101 17.9045C16.0715 17.9387 16.0051 17.994 15.9167 18.0459C15.8482 18.0861 15.6522 18.1942 15.3793 18.1942C15.2646 18.1942 15.1741 18.1735 15.1555 18.1692L15.1537 18.1688C15.1209 18.1614 15.0945 18.1537 15.0798 18.1493C15.0496 18.1402 15.0231 18.131 15.0069 18.1252C14.9722 18.1127 14.9346 18.0981 14.9011 18.0848C14.8318 18.0573 14.7459 18.0217 14.6607 17.9858C14.491 17.9143 14.2993 17.8312 14.2033 17.7878M18.1604 15.3239L5.40341 1.01132C5.54446 1.00513 5.60289 1.00184 5.63479 1C5.63616 1 5.63769 1 5.63939 1C5.76301 1 5.8359 1.02969 5.91661 1.10057C6.02288 1.1939 6.17574 1.39386 6.33987 1.80281L6.34032 1.80391C6.37907 1.90013 6.49595 2.19294 6.65285 2.58602C6.82374 3.01413 7.0421 3.56117 7.25871 4.1027C7.65894 5.10331 8.08498 6.16629 8.14722 6.29589L8.1472 6.2959L8.15057 6.30279C8.23833 6.48201 8.35818 6.75376 8.19763 7.08583L8.19568 7.08991L8.11439 7.25999L8.11298 7.26298C7.96361 7.5782 7.8732 7.76531 7.65697 8.02746C7.55369 8.15177 7.4499 8.28191 7.3536 8.40265L7.35276 8.4037C7.13648 8.67471 6.95477 8.90089 6.79798 9.06238L6.79797 9.06237L6.79345 9.06708L6.78974 9.07095C6.75719 9.10491 6.6924 9.1725 6.63212 9.24234C6.6013 9.27806 6.5588 9.32906 6.51762 9.38695C6.51695 9.3879 6.51613 9.38904 6.51518 9.39037C6.49183 9.42291 6.38744 9.56834 6.3354 9.76722L6.29476 9.92249L6.30476 10.0827L7.30282 10.0204C6.30476 10.0827 6.30479 10.0832 6.30483 10.0837L6.3049 10.0848L6.30504 10.087L6.30533 10.0913L6.30598 10.0999L6.30751 10.1172C6.30863 10.1287 6.30995 10.1404 6.31147 10.152C6.31452 10.1754 6.31837 10.1989 6.32303 10.2226C6.33236 10.2699 6.34487 10.3176 6.3605 10.3657C6.39167 10.4616 6.4355 10.5596 6.49245 10.6607L6.49388 10.6632C6.74232 11.101 7.63249 12.4 8.95057 13.8129C10.2693 15.2264 12.0865 16.8305 14.2033 17.7878M18.1604 15.3239C18.3424 15.0405 18.4677 15.0301 18.541 15.0301C18.6422 15.0301 18.7727 15.0628 19.0358 15.1612M18.1604 15.3239L19.0358 15.1612M14.2033 17.7878L14.6153 16.8766L14.2033 17.7878C14.2033 17.7878 14.2033 17.7878 14.2033 17.7878ZM3.32265 12.4674L3.32263 12.4674C3.35223 12.5086 3.39496 12.5739 3.43077 12.6286C3.43719 12.6384 3.44338 12.6478 3.44924 12.6567C6.26316 16.9352 9.72264 20.0268 13.1362 21.4465C16.5688 22.874 18.0994 23 18.8759 23C19.2178 23 19.4917 22.9725 19.7704 22.944L19.7737 22.9436L19.9518 22.926L19.9586 22.9253C20.3353 22.8906 21.1449 22.5976 21.9695 22.0507C22.7961 21.5025 23.3966 20.8575 23.5936 20.2878L23.5936 20.2877C23.807 19.6703 23.9395 19.0287 23.9836 18.4977C24.0057 18.2322 24.0041 18.0142 23.9869 17.8526C23.9742 17.7322 23.9563 17.676 23.9526 17.6636C23.9359 17.6395 23.903 17.6034 23.8232 17.549C23.7097 17.4715 23.5626 17.3959 23.3092 17.2693L3.32265 12.4674ZM3.32265 12.4674L3.31881 12.4622M3.32265 12.4674L3.31881 12.4622M3.31881 12.4622C2.58012 11.4486 1 8.95319 1 6.41377C1 3.51833 2.32704 2.02635 2.89095 1.65618L3.31881 12.4622ZM19.0358 15.1612C19.2949 15.2584 20.2976 15.7491 21.3284 16.266C22.1517 16.6788 23.0069 17.1151 23.2449 17.2365C23.2835 17.2562 23.3058 17.2676 23.3092 17.2693L19.0358 15.1612ZM4.24378 1.19694C3.64199 1.32812 3.13388 1.49677 2.891 1.65614L4.24378 1.19694ZM4.24378 1.19694C4.82023 1.07129 5.30922 1.01547 5.40335 1.01132L4.24378 1.19694Z" stroke="#F5F4F6" stroke-width="2"/>
</svg>

<svg width="25" height="24" fill="none" xmlns="http://www.w3.org/2000/svg"><path d="M18.16 15.324l-.001.002c-.404.625-1.543 2.008-1.875 2.398a1.744 1.744 0 01-.174.18c-.038.035-.105.09-.193.142a1.062 1.062 0 01-.761.123h-.002a1.098 1.098 0 01-.147-.044 13.121 13.121 0 01-.346-.14c-.17-.07-.362-.154-.458-.197m3.957-2.464L5.403 1.01 5.635 1h.004c.124 0 .197.03.278.1.106.094.259.294.423.703h0c.04.097.156.39.313.783l.606 1.517c.4 1 .826 2.063.888 2.193h0l.004.007c.087.179.207.45.047.783l-.002.004-.082.17-.001.003c-.15.315-.24.502-.456.764a26.43 26.43 0 00-.303.376h-.001a9.761 9.761 0 01-.555.66h0l-.005.004-.003.004a3.847 3.847 0 00-.158.171c-.03.036-.073.087-.114.145l-.003.003c-.023.033-.128.178-.18.377l-.04.155.01.16.998-.062-.998.064h0v.007l.001.009.002.017a1.06 1.06 0 00.053.249 1.6 1.6 0 00.131.295l.002.002c.248.438 1.138 1.737 2.457 3.15 1.318 1.413 3.135 3.018 5.252 3.975m3.957-2.464c.182-.284.308-.294.381-.294.101 0 .232.033.495.131m-.876.163l.876-.163m-4.833 2.627l.412-.911-.412.91s0 0 0 0zm-10.88-5.32h0c.03.04.072.106.108.16l.018.029c2.814 4.278 6.274 7.37 9.687 8.79C16.57 22.873 18.1 23 18.876 23c.342 0 .616-.027.894-.056h.004l.178-.018h.007c.376-.035 1.186-.328 2.01-.875.827-.548 1.428-1.193 1.625-1.763h0a7.618 7.618 0 00.39-1.79c.022-.266.02-.484.003-.645a1.031 1.031 0 00-.034-.19.48.48 0 00-.13-.114 4.643 4.643 0 00-.514-.28L3.323 12.467zm0 0l-.004-.006m.004.005l-.004-.005m0 0C2.58 11.45 1 8.953 1 6.414c0-2.896 1.327-4.388 1.891-4.758l.428 10.806zm15.717 2.7c.259.096 1.262.587 2.292 1.104.824.413 1.679.85 1.917.97l.064.033-4.273-2.108zM4.244 1.196c-.602.131-1.11.3-1.353.46l1.353-.46zm0 0a9.468 9.468 0 011.16-.186l-1.16.186z" stroke="#F5F4F6" stroke-width="2"/></svg>
